X:912
T:Whistle O'er the Lave O't
R:Slow Strathspey
B:The Athole Collection
M:C
L:1/8
Q:1/4=140
K:G
G>E E<G B>A B2|d<e B>g A>G E2|G>D E<G G>AB>g|G<G B>G A2G2:|
de/f/ g>f e>d B2| d>eB>g A>G E2|de/f/ g>f e>d B<g|G<G B>G A2 G2|
de/f/ g>f e>d B2|c>aB>g A>G E2|g>be>g d>g BG A2 G2||
|:G>BA>c B>GA>c|B>GA>F G>B, A,2|G,>B,A,>C B,>D G<B|
A>Bc>B A2 G2:|
G/A/B/c/ d<g e>cB>G|c>AB>G A>G E2|BA/B/ cB/c/ de/f/ g2|
G<G B>G A2G2|G/A/B/c/ d<g e>cB>G|ce/c/ Bd/B/ A>G E2|
g>be>g d>g BG A2 G2||
